meteor/public/icons/Warning.svg

<svg height="16" viewBox="0 0 17 16" width="17" xmlns="http://www.w3.org/2000/svg"><path d="m14.8185992 4.55137109 3.200058 10.98449001c.3089457 1.060484-.3002966 2.1706261-1.3607806 2.4795717-.3653366.1064318-.7534545.1064318-1.1187911 0l-10.98449006-3.200058c-1.06048403-.3089456-1.66972626-1.4190877-1.36078061-2.4795717.09408471-.3229543.26810614-.6169615.50596262-.854818l7.78443205-7.784432c.7810486-.78104858 2.0473785-.78104858 2.8284271 0 .2378565.23785649.4118779.53186368.5059626.85481799z" fill="none" stroke="#ff0" transform="matrix(-.70710678 -.70710678 .70710678 -.70710678 8.608516 25.600215)"/></svg>

<svg width="17px" height="16px" viewBox="0 0 17 16" version="1.1" xmlns="http://www.w3.org/2000/svg" xmlns:xlink="http://www.w3.org/1999/xlink">
    <desc>Warning</desc>
    <defs></defs>
    <g id="Page-1" stroke="none" stroke-width="1" fill="none" fill-rule="evenodd">
        <g id="Warning" transform="translate(-2.000000, 0.000000)" fill-rule="nonzero" stroke="#FFFF00">
            <path d="M14.8185992,4.55137109 L18.0186572,15.5358611 C18.3276029,16.5963451 17.7183606,17.7064872 16.6578766,18.0154328 C16.29254,18.1218646 15.9044221,18.1218646 15.5390855,18.0154328 L4.55459544,14.8153748 C3.49411141,14.5064292 2.88486918,13.3962871 3.19381483,12.3358031 C3.28789954,12.0128488 3.46192097,11.7188416 3.69977745,11.4809851 L11.4842095,3.6965531 C12.2652581,2.91550452 13.531588,2.91550452 14.3126366,3.6965531 C14.5504931,3.93440959 14.7245145,4.22841678 14.8185992,4.55137109 Z" id="Shape" transform="translate(10.606236, 10.603012) rotate(-135.000000) translate(-10.606236, -10.603012) "></path>
        </g>
    </g>
</svg>
